d1 $ s "[sd!4, cp, hh!6]"

d1 $ s "[hh!2 | cp*3]"

d1 $ every 3 (+ up 12) $ every 2 (+ up 12) $ n "3*4 4*4 5*4" # s "superpiano@3 ~ superpiano"

hush

setcps (120/4/60)

d1 
  $ jux (rev)
  $ chop "<16 128>" 
  $ s "breaks125:0 breaks125:1" 
  # gain 1.3

d1 $ loopAt 0.5 $ chop 128 $ sound "breaks125"

d1 $ juxBy 0.6 (|* speed "2") $ loopAt "<4 6 2 3>" $ chop 12 $ sound "fm:14"

d1 $ n (slow 2 $ segment 128 $ range 0 32 $ sine) # sound "amencutup"

d1 $ echo 4 0.2 0.8 $ s "bd(3,8)"

hush