setcps(130/60/8)

hush

d1 $ stack [
  s "<dbs*300 dbs*400 dbs*450>",
  s "<dbs*200 dbs*1200>" # nudge 0.3
  ] # end 0.2 
  # lpf (segment 16 $ fast 2 $ range 200 500 sine)
  # lpf (segment 32 $ fast 2 $ range 100 700 sine)
  # pan (segment 64 $ fast 4 $ range 0.3 0.7 sine)
  # crush 2
  # gain (segment 17 $ fast 4 $ range 0.9 1.3 cosine)

d1 $ s "dbs"

hush

d1 $ s "superclap" # n "1 2 3"